src/assets/card/gold-empty.svg

<svg width="100" height="130" viewBox="0 0 100 130" fill="none" xmlns="http://www.w3.org/2000/svg">
<g id="gold-empty">
<g id="Rectangle 213" filter="url(#filter0_b_965_14760)">
<mask id="path-1-inside-1_965_14760" fill="white">
<path d="M12 4H88V130H12V4Z"/>
</mask>
<path d="M12 4H88V130H12V4Z" fill="url(#paint0_linear_965_14760)" fill-opacity="0.2"/>
<path d="M12 4V3.34148H11.3415V4H12ZM88 4H88.6585V3.34148H88V4ZM12 4.65852H88V3.34148H12V4.65852ZM87.3415 4V130H88.6585V4H87.3415ZM12.6585 130V4H11.3415V130H12.6585Z" fill="url(#paint1_linear_965_14760)" mask="url(#path-1-inside-1_965_14760)"/>
</g>
<rect id="Rectangle 214" x="12" y="4.00009" width="76" height="3" fill="url(#paint2_linear_965_14760)"/>
<g id="Group 221">
<path id="Vector 145" d="M100 101L76.0491 130H80.0002L100 104.951V101Z" fill="url(#paint3_linear_965_14760)"/>
<path id="Vector 146" d="M99 109.178L82 130H84.8222L99 112V109.178Z" fill="url(#paint4_linear_965_14760)"/>
<path id="Vector 149 (Stroke)" fill-rule="evenodd" clip-rule="evenodd" d="M91 107V10H91.5V107L73.5 130H73L91 107Z" fill="url(#paint5_linear_965_14760)"/>
<path id="Vector 150 (Stroke)" opacity="0.5" fill-rule="evenodd" clip-rule="evenodd" d="M93.8353 19.0682L84.8835 10.1164L85.1164 9.88358L94.1646 18.9318V105H93.8353V19.0682Z" fill="url(#paint6_linear_965_14760)"/>
<path id="Vector 153" opacity="0.3" d="M100 4H91V9H95V22H100V4Z" fill="url(#paint7_linear_965_14760)"/>
</g>
<g id="Group 222">
<path id="Vector 145_2" d="M0 101L23.9509 130H19.9998L0 104.951V101Z" fill="url(#paint8_linear_965_14760)"/>
<path id="Vector 146_2" d="M1 109.178L18 130H15.1778L1 112V109.178Z" fill="url(#paint9_linear_965_14760)"/>
<path id="Vector 149 (Stroke)_2" fill-rule="evenodd" clip-rule="evenodd" d="M9 107V10H8.5V107L26.5 130H27L9 107Z" fill="url(#paint10_linear_965_14760)"/>
<path id="Vector 150 (Stroke)_2" opacity="0.5" fill-rule="evenodd" clip-rule="evenodd" d="M6.16467 19.0682L15.1165 10.1164L14.8836 9.88358L5.83541 18.9318V105H6.16467V19.0682Z" fill="url(#paint11_linear_965_14760)"/>
<path id="Vector 153_2" opacity="0.3" d="M0 4H9V9H5V22H0V4Z" fill="url(#paint12_linear_965_14760)"/>
</g>
<g id="diamond">
<path id="Polygon 38" d="M50 0L53 6L50 10L47 6L50 0Z" fill="#AB750F"/>
<path id="Vector 108" d="M47 6L50 0V10L47 6Z" fill="#FFC502"/>
<path id="highlight" d="M49.9621 1.27928L53 5.99994L50 3.19481e-05C48.8284 2.34314 48.1716 3.65683 47 5.99994L49.9621 1.27928Z" fill="white" fill-opacity="0.3"/>
</g>
<g id="icon-gold" clip-path="url(#clip0_965_14760)">
<path id="GOLD" d="M45.7814 116.038C45.5715 116.038 45.3782 116.005 45.2016 115.939C45.0275 115.869 44.8752 115.773 44.7446 115.651C44.614 115.525 44.5129 115.378 44.4412 115.209C44.3696 115.04 44.3337 114.856 44.3337 114.656C44.3337 114.456 44.3696 114.272 44.4412 114.103C44.5129 113.934 44.614 113.788 44.7446 113.665C44.8777 113.54 45.0326 113.444 45.2092 113.377C45.3859 113.308 45.5792 113.274 45.7891 113.274C46.0169 113.274 46.2217 113.311 46.4035 113.385C46.5878 113.459 46.7427 113.568 46.8681 113.711L46.5532 114.019C46.4483 113.914 46.3344 113.837 46.2115 113.788C46.0912 113.737 45.958 113.711 45.8121 113.711C45.6713 113.711 45.5408 113.734 45.4204 113.78C45.3001 113.827 45.1964 113.892 45.1094 113.976C45.0224 114.061 44.9545 114.161 44.9059 114.276C44.8598 114.391 44.8368 114.518 44.8368 114.656C44.8368 114.792 44.8598 114.917 44.9059 115.032C44.9545 115.148 45.0224 115.249 45.1094 115.336C45.1964 115.42 45.2988 115.485 45.4166 115.532C45.5344 115.578 45.6649 115.601 45.8083 115.601C45.9414 115.601 46.0694 115.58 46.1923 115.539C46.3177 115.496 46.4368 115.424 46.5494 115.324L46.8336 115.697C46.6928 115.809 46.5289 115.895 46.342 115.954C46.1577 116.01 45.9708 116.038 45.7814 116.038ZM46.3612 115.631V114.625H46.8336V115.697L46.3612 115.631ZM48.7515 116.038C48.5416 116.038 48.3483 116.004 48.1716 115.935C47.995 115.866 47.8414 115.77 47.7108 115.647C47.5803 115.521 47.4792 115.375 47.4075 115.209C47.3358 115.04 47.3 114.856 47.3 114.656C47.3 114.456 47.3358 114.273 47.4075 114.107C47.4792 113.938 47.5803 113.792 47.7108 113.669C47.8414 113.544 47.995 113.446 48.1716 113.377C48.3483 113.308 48.5403 113.274 48.7476 113.274C48.9576 113.274 49.1496 113.308 49.3236 113.377C49.5003 113.446 49.6539 113.544 49.7844 113.669C49.915 113.792 50.0161 113.938 50.0878 114.107C50.1595 114.273 50.1953 114.456 50.1953 114.656C50.1953 114.856 50.1595 115.04 50.0878 115.209C50.0161 115.378 49.915 115.524 49.7844 115.647C49.6539 115.77 49.5003 115.866 49.3236 115.935C49.1496 116.004 48.9588 116.038 48.7515 116.038ZM48.7476 115.601C48.8833 115.601 49.0088 115.578 49.124 115.532C49.2392 115.485 49.339 115.42 49.4235 115.336C49.508 115.249 49.5732 115.149 49.6193 115.036C49.668 114.921 49.6923 114.794 49.6923 114.656C49.6923 114.518 49.668 114.392 49.6193 114.28C49.5732 114.164 49.508 114.065 49.4235 113.98C49.339 113.893 49.2392 113.827 49.124 113.78C49.0088 113.734 48.8833 113.711 48.7476 113.711C48.612 113.711 48.4865 113.734 48.3713 113.78C48.2587 113.827 48.1588 113.893 48.0718 113.98C47.9873 114.065 47.9208 114.164 47.8721 114.28C47.826 114.392 47.803 114.518 47.803 114.656C47.803 114.792 47.826 114.917 47.8721 115.032C47.9208 115.148 47.9873 115.249 48.0718 115.336C48.1563 115.42 48.2561 115.485 48.3713 115.532C48.4865 115.578 48.612 115.601 48.7476 115.601ZM50.7245 116V113.312H51.2237V115.578H52.6291V116H50.7245ZM53.0232 116V113.312H54.1983C54.4901 113.312 54.7461 113.368 54.9663 113.481C55.1864 113.594 55.3579 113.75 55.4808 113.949C55.6037 114.149 55.6651 114.385 55.6651 114.656C55.6651 114.925 55.6037 115.16 55.4808 115.363C55.3579 115.562 55.1864 115.718 54.9663 115.831C54.7461 115.944 54.4901 116 54.1983 116H53.0232ZM53.5224 115.578H54.1752C54.3775 115.578 54.5515 115.539 54.6975 115.462C54.8459 115.386 54.9599 115.278 55.0392 115.14C55.1211 115.002 55.1621 114.84 55.1621 114.656C55.1621 114.469 55.1211 114.308 55.0392 114.172C54.9599 114.034 54.8459 113.926 54.6975 113.85C54.5515 113.773 54.3775 113.734 54.1752 113.734H53.5224V115.578Z" fill="url(#paint13_linear_965_14760)"/>
<g id="Gold" clip-path="url(#clip1_965_14760)">
<path id="Union" fill-rule="evenodd" clip-rule="evenodd" d="M53.6648 102.074L51.7206 103.467C51.7206 103.467 49.9059 101.069 47.4432 103.046L46.3252 101.928C46.3252 101.928 47.458 100.625 48.5922 100.56V100H50.3842V100.56C50.3835 100.56 50.3839 100.56 50.3853 100.56C50.4353 100.562 51.8042 100.623 53.6648 102.074ZM45.5265 109.126L47.4708 107.733C47.4708 107.733 49.2855 110.131 51.7482 108.154L52.8662 109.272C52.8662 109.272 51.7423 110.575 50.6082 110.64V111.2H48.8162V110.64C48.8162 110.64 47.4384 110.617 45.5265 109.126ZM49.6114 104.828C46.0469 104.731 46.0741 102.22 46.0741 102.22C45.3442 102.8 44.4482 106.481 48.8309 106.481C52.8482 106.481 53.2408 108.944 53.2408 108.944C54.861 106.837 53.1759 104.926 49.6114 104.828Z" fill="url(#paint14_linear_965_14760)"/>
</g>
</g>
<g id="add" clip-path="url(#clip2_965_14760)">
<g id="Group 332">
<rect id="Rectangle 414" x="36.4" y="70.6675" width="27.2" height="27.2" rx="13.6" transform="rotate(-90 36.4 70.6675)" fill="url(#paint15_linear_965_14760)"/>
<path id="Rectangle 416 (Stroke)" fill-rule="evenodd" clip-rule="evenodd" d="M49.9261 72.1263C58.3209 72.1263 65.1261 65.321 65.1261 56.9263C65.1261 48.5315 58.3209 41.7263 49.9261 41.7263C41.5314 41.7263 34.7261 48.5315 34.7261 56.9263C34.7261 65.321 41.5314 72.1263 49.9261 72.1263ZM33.9261 56.9263C33.9261 65.7628 41.0896 72.9263 49.9261 72.9263C58.7627 72.9263 65.9261 65.7628 65.9261 56.9263C65.9261 48.0897 58.7627 40.9263 49.9261 40.9263C41.0896 40.9263 33.9261 48.0897 33.9261 56.9263Z" fill="url(#paint16_linear_965_14760)"/>
<g id="Group 264">
<path id="Union_2" fill-rule="evenodd" clip-rule="evenodd" d="M49.9999 49.8C51.1928 49.8 52.1599 50.7671 52.1599 51.96V54.84H55.0399C56.2328 54.84 57.1999 55.8071 57.1999 57C57.1999 58.193 56.2328 59.16 55.0399 59.16H52.1599V62.04C52.1599 63.233 51.1928 64.2 49.9999 64.2C48.807 64.2 47.8399 63.233 47.8399 62.04V59.16H44.9599C43.767 59.16 42.7999 58.193 42.7999 57C42.7999 55.8071 43.767 54.84 44.9599 54.84H47.8399V51.96C47.8399 50.7671 48.807 49.8 49.9999 49.8Z" fill="#F5F1EE"/>
</g>
</g>
</g>
</g>
<defs>
<filter id="filter0_b_965_14760" x="7.45139" y="-0.548611" width="85.0972" height="135.097" filterUnits="userSpaceOnUse" color-interpolation-filters="sRGB">
<feFlood flood-opacity="0" result="BackgroundImageFix"/>
<feGaussianBlur in="BackgroundImageFix" stdDeviation="2.27431"/>
<feComposite in2="SourceAlpha" operator="in" result="effect1_backgroundBlur_965_14760"/>
<feBlend mode="normal" in="SourceGraphic" in2="effect1_backgroundBlur_965_14760" result="shape"/>
</filter>
<linearGradient id="paint0_linear_965_14760" x1="50" y1="4" x2="50" y2="130" gradientUnits="userSpaceOnUse">
<stop stop-color="#AB750F"/>
<stop offset="1" stop-color="#997601" stop-opacity="0"/>
</linearGradient>
<linearGradient id="paint1_linear_965_14760" x1="50" y1="4" x2="50" y2="142.866" gradientUnits="userSpaceOnUse">
<stop stop-color="#D1A14A"/>
<stop offset="1" stop-color="#D1A14A" stop-opacity="0"/>
</linearGradient>
<linearGradient id="paint2_linear_965_14760" x1="8.44715" y1="5.5001" x2="89.3902" y2="5.50013" gradientUnits="userSpaceOnUse">
<stop stop-color="#AB750F"/>
<stop offset="0.516" stop-color="#D8A956"/>
<stop offset="1" stop-color="#AB750F"/>
</linearGradient>
<linearGradient id="paint3_linear_965_14760" x1="74.9294" y1="115.5" x2="100.438" y2="115.5" gradientUnits="userSpaceOnUse">
<stop stop-color="#AB750F"/>
<stop offset="0.516" stop-color="#D8A956"/>
<stop offset="1" stop-color="#AB750F"/>
</linearGradient>
<linearGradient id="paint4_linear_965_14760" x1="81.2053" y1="119.589" x2="99.311" y2="119.589" gradientUnits="userSpaceOnUse">
<stop stop-color="#AB750F"/>
<stop offset="0.516" stop-color="#D8A956"/>
<stop offset="1" stop-color="#AB750F"/>
</linearGradient>
<linearGradient id="paint5_linear_965_14760" x1="72.1352" y1="70.0005" x2="91.8384" y2="70.0005" gradientUnits="userSpaceOnUse">
<stop stop-color="#AB750F"/>
<stop offset="0.516" stop-color="#D8A956"/>
<stop offset="1" stop-color="#AB750F"/>
</linearGradient>
<linearGradient id="paint6_linear_965_14760" x1="89.5241" y1="9.88358" x2="89.5241" y2="105" gradientUnits="userSpaceOnUse">
<stop stop-color="#AB750F"/>
<stop offset="0.516" stop-color="#D8A956"/>
<stop offset="1" stop-color="#AB750F"/>
</linearGradient>
<linearGradient id="paint7_linear_965_14760" x1="95.5" y1="4" x2="95.5" y2="22" gradientUnits="userSpaceOnUse">
<stop stop-color="#AB750F"/>
<stop offset="0.516" stop-color="#D8A956"/>
<stop offset="1" stop-color="#AB750F"/>
</linearGradient>
<linearGradient id="paint8_linear_965_14760" x1="25.0706" y1="115.5" x2="-0.438125" y2="115.5" gradientUnits="userSpaceOnUse">
<stop stop-color="#AB750F"/>
<stop offset="0.516" stop-color="#D8A956"/>
<stop offset="1" stop-color="#AB750F"/>
</linearGradient>
<linearGradient id="paint9_linear_965_14760" x1="18.7947" y1="119.589" x2="0.689025" y2="119.589" gradientUnits="userSpaceOnUse">
<stop stop-color="#AB750F"/>
<stop offset="0.516" stop-color="#D8A956"/>
<stop offset="1" stop-color="#AB750F"/>
</linearGradient>
<linearGradient id="paint10_linear_965_14760" x1="27.8648" y1="70.0005" x2="8.16159" y2="70.0005" gradientUnits="userSpaceOnUse">
<stop stop-color="#AB750F"/>
<stop offset="0.516" stop-color="#D8A956"/>
<stop offset="1" stop-color="#AB750F"/>
</linearGradient>
<linearGradient id="paint11_linear_965_14760" x1="10.4759" y1="9.88358" x2="10.4759" y2="105" gradientUnits="userSpaceOnUse">
<stop stop-color="#AB750F"/>
<stop offset="0.516" stop-color="#D8A956"/>
<stop offset="1" stop-color="#AB750F"/>
</linearGradient>
<linearGradient id="paint12_linear_965_14760" x1="4.5" y1="4" x2="4.5" y2="22" gradientUnits="userSpaceOnUse">
<stop stop-color="#AB750F"/>
<stop offset="0.516" stop-color="#D8A956"/>
<stop offset="1" stop-color="#AB750F"/>
</linearGradient>
<linearGradient id="paint13_linear_965_14760" x1="43.4388" y1="114.5" x2="56.2193" y2="114.5" gradientUnits="userSpaceOnUse">
<stop stop-color="#AB750F"/>
<stop offset="0.516" stop-color="#D8A956"/>
<stop offset="1" stop-color="#AB750F"/>
</linearGradient>
<linearGradient id="paint14_linear_965_14760" x1="45.0746" y1="105.6" x2="54.0128" y2="105.6" gradientUnits="userSpaceOnUse">
<stop stop-color="#AB750F"/>
<stop offset="0.516" stop-color="#D8A956"/>
<stop offset="1" stop-color="#AB750F"/>
</linearGradient>
<linearGradient id="paint15_linear_965_14760" x1="69.5637" y1="81.2186" x2="35.4912" y2="81.5663" gradientUnits="userSpaceOnUse">
<stop stop-color="#AB750F"/>
<stop offset="0.237787" stop-color="#D8A956"/>
<stop offset="1" stop-color="#AB750F"/>
</linearGradient>
<linearGradient id="paint16_linear_965_14760" x1="49.9263" y1="74.4222" x2="49.9263" y2="40.3409" gradientUnits="userSpaceOnUse">
<stop stop-color="#AB750F"/>
<stop offset="0.516" stop-color="#D8A956"/>
<stop offset="1" stop-color="#AB750F"/>
</linearGradient>
<clipPath id="clip0_965_14760">
<rect width="16" height="16" fill="white" transform="translate(42 100)"/>
</clipPath>
<clipPath id="clip1_965_14760">
<rect width="11.2" height="11.2" fill="white" transform="translate(44.0001 100)"/>
</clipPath>
<clipPath id="clip2_965_14760">
<rect width="32" height="32" fill="white" transform="translate(34 41)"/>
</clipPath>
</defs>
</svg>

<svg xmlns="http://www.w3.org/2000/svg" width="100" height="130" fill="none" xmlns:v="https://vecta.io/nano"><mask id="A" fill="#fff"><path d="M12 4H88V130H12V4Z"/></mask><path d="M12 4H88V130H12V4Z" fill="url(#B)" fill-opacity=".2"/><path d="M12 4v-.659h-.659V4H12zm76 0h.659v-.659H88V4zm-76 .659h76V3.341H12v1.317zM87.342 4v126h1.317V4h-1.317zM12.659 130V4h-1.317v126h1.317z" fill="url(#C)" mask="url(#A)"/><path fill="url(#D)" d="M12 4h76v3H12z"/><path d="M100 101l-23.951 29H80l20-25.049V101z" fill="url(#E)"/><path d="M99 109.178L82 130h2.822L99 112v-2.822z" fill="url(#F)"/><g fill-rule="evenodd"><path d="M91 107V10h.5v97l-18 23H73l18-23z" fill="url(#G)"/><path opacity=".5" d="M93.835 19.068l-8.952-8.952.233-.233 9.048 9.048V105h-.329V19.068z" fill="url(#H)"/></g><path opacity=".3" d="M100 4h-9v5h4v13h5V4z" fill="url(#I)"/><path d="M0 101l23.951 29H20L0 104.951V101z" fill="url(#J)"/><path d="M1 109.178L18 130h-2.822L1 112v-2.822z" fill="url(#K)"/><g fill-rule="evenodd"><path d="M9 107V10h-.5v97l18 23h.5L9 107z" fill="url(#L)"/><path opacity=".5" d="M6.165 19.068l8.952-8.952-.233-.233-9.048 9.048V105h.329V19.068z" fill="url(#M)"/></g><path opacity=".3" d="M0 4H9V9H5V22H0V4Z" fill="url(#N)"/><path d="M50 0l3 6-3 4-3-4 3-6z" fill="#ab750f"/><path d="M47 6l3-6v10l-3-4z" fill="#ffc502"/><path d="M49.962 1.279L53 6l-3-6-3 6 2.962-4.721z" fill="#fff" fill-opacity=".3"/><g clip-path="url(#S)"><path d="M45.781 116.038c-.21 0-.403-.033-.58-.099a1.46 1.46 0 0 1-.457-.288 1.33 1.33 0 0 1-.303-.442 1.4 1.4 0 0 1-.108-.553 1.4 1.4 0 0 1 .108-.553 1.28 1.28 0 0 1 .303-.438c.133-.125.288-.221.465-.288a1.58 1.58 0 0 1 .58-.103c.228 0 .433.037.614.111s.339.183.465.326l-.315.308c-.105-.105-.219-.182-.342-.231s-.254-.077-.399-.077a1.09 1.09 0 0 0-.392.069c-.12.047-.224.112-.311.196a.91.91 0 0 0-.203.3c-.046.115-.069.242-.069.38a1 1 0 0 0 .069.376c.049.116.116.217.203.304s.189.149.307.196a1.07 1.07 0 0 0 .392.069c.133 0 .261-.021.384-.062s.244-.115.357-.215l.284.373c-.141.112-.305.198-.492.257a1.92 1.92 0 0 1-.561.084zm.58-.407v-1.006h.472v1.072l-.472-.066zm2.39.407a1.58 1.58 0 0 1-.58-.103c-.177-.069-.33-.165-.461-.288s-.232-.272-.303-.438a1.4 1.4 0 0 1-.108-.553 1.37 1.37 0 0 1 .108-.549c.072-.169.173-.315.303-.438s.284-.223.461-.292a1.57 1.57 0 0 1 .576-.103 1.55 1.55 0 0 1 .576.103 1.39 1.39 0 0 1 .461.292 1.28 1.28 0 0 1 .303.438 1.37 1.37 0 0 1 .108.549 1.4 1.4 0 0 1-.108.553 1.28 1.28 0 0 1-.303.438c-.13.123-.284.219-.461.288a1.54 1.54 0 0 1-.572.103zm-.004-.437c.136 0 .261-.023.376-.069s.215-.112.299-.196a.93.93 0 0 0 .196-.3c.049-.115.073-.242.073-.38s-.024-.264-.073-.376a.88.88 0 0 0-.196-.3.87.87 0 0 0-.299-.2c-.115-.046-.241-.069-.376-.069s-.261.023-.376.069a.92.92 0 0 0-.299.2.93.93 0 0 0-.2.3.98.98 0 0 0-.069.376 1 1 0 0 0 .069.376.97.97 0 0 0 .2.304c.084.084.184.149.299.196s.241.069.376.069zm1.977.399v-2.688h.499v2.266h1.405V116h-1.905zm2.299 0v-2.688h1.175a1.66 1.66 0 0 1 .768.169c.22.113.392.269.515.468s.184.436.184.707-.061.504-.184.707-.294.355-.515.468a1.66 1.66 0 0 1-.768.169h-1.175zm.499-.422h.653c.202 0 .376-.039.522-.116a.81.81 0 0 0 .342-.322c.082-.138.123-.3.123-.484a.92.92 0 0 0-.123-.484.81.81 0 0 0-.342-.322c-.146-.077-.32-.116-.522-.116h-.653v1.844z" fill="url(#O)"/><g clip-path="url(#T)"><path fill-rule="evenodd" d="M53.665 102.074l-1.944 1.393s-1.815-2.398-4.277-.421l-1.118-1.118s1.133-1.303 2.267-1.368V100h1.792v.56c.051.002 1.42.063 3.281 1.514zm-8.138 7.052l1.944-1.393s1.815 2.398 4.277.421l1.118 1.118s-1.124 1.303-2.258 1.368v.56h-1.792v-.56s-1.378-.023-3.29-1.514zm4.085-4.298c-3.565-.097-3.537-2.608-3.537-2.608-.73.58-1.626 4.261 2.757 4.261 4.017 0 4.41 2.463 4.41 2.463 1.62-2.107-.065-4.018-3.629-4.116z" fill="url(#P)"/></g></g><g clip-path="url(#U)"><rect x="36.4" y="70.668" width="27.2" height="27.2" rx="13.6" transform="rotate(270 36.4 70.668)" fill="url(#Q)"/><g fill-rule="evenodd"><path d="M49.926 72.126c8.395 0 15.2-6.805 15.2-15.2s-6.805-15.2-15.2-15.2-15.2 6.805-15.2 15.2 6.805 15.2 15.2 15.2zm-16-15.2c0 8.837 7.163 16 16 16s16-7.163 16-16-7.163-16-16-16-16 7.163-16 16z" fill="url(#R)"/><path d="M50 49.8a2.16 2.16 0 0 1 2.16 2.16v2.88h2.88a2.16 2.16 0 0 1 0 4.32h-2.88v2.88a2.16 2.16 0 1 1-4.32 0v-2.88h-2.88a2.16 2.16 0 0 1 0-4.32h2.88v-2.88A2.16 2.16 0 0 1 50 49.8z" fill="#f5f1ee"/></g></g><defs><linearGradient id="B" x1="50" y1="4" x2="50" y2="130" href="#V"><stop stop-color="#ab750f"/><stop offset="1" stop-color="#997601" stop-opacity="0"/></linearGradient><linearGradient id="C" x1="50" y1="4" x2="50" y2="142.866" href="#V"><stop stop-color="#d1a14a"/><stop offset="1" stop-color="#d1a14a" stop-opacity="0"/></linearGradient><linearGradient id="D" x1="8.447" y1="5.5" x2="89.39" y2="5.5" href="#V"><stop stop-color="#ab750f"/><stop offset=".516" stop-color="#d8a956"/><stop offset="1" stop-color="#ab750f"/></linearGradient><linearGradient id="E" x1="74.929" y1="115.5" x2="100.438" y2="115.5" href="#V"><stop stop-color="#ab750f"/><stop offset=".516" stop-color="#d8a956"/><stop offset="1" stop-color="#ab750f"/></linearGradient><linearGradient id="F" x1="81.205" y1="119.589" x2="99.311" y2="119.589" href="#V"><stop stop-color="#ab750f"/><stop offset=".516" stop-color="#d8a956"/><stop offset="1" stop-color="#ab750f"/></linearGradient><linearGradient id="G" x1="72.135" y1="70.001" x2="91.838" y2="70.001" href="#V"><stop stop-color="#ab750f"/><stop offset=".516" stop-color="#d8a956"/><stop offset="1" stop-color="#ab750f"/></linearGradient><linearGradient id="H" x1="89.524" y1="9.884" x2="89.524" y2="105" href="#V"><stop stop-color="#ab750f"/><stop offset=".516" stop-color="#d8a956"/><stop offset="1" stop-color="#ab750f"/></linearGradient><linearGradient id="I" x1="95.5" y1="4" x2="95.5" y2="22" href="#V"><stop stop-color="#ab750f"/><stop offset=".516" stop-color="#d8a956"/><stop offset="1" stop-color="#ab750f"/></linearGradient><linearGradient id="J" x1="25.071" y1="115.5" x2="-.438" y2="115.5" href="#V"><stop stop-color="#ab750f"/><stop offset=".516" stop-color="#d8a956"/><stop offset="1" stop-color="#ab750f"/></linearGradient><linearGradient id="K" x1="18.795" y1="119.589" x2=".689" y2="119.589" href="#V"><stop stop-color="#ab750f"/><stop offset=".516" stop-color="#d8a956"/><stop offset="1" stop-color="#ab750f"/></linearGradient><linearGradient id="L" x1="27.865" y1="70.001" x2="8.162" y2="70.001" href="#V"><stop stop-color="#ab750f"/><stop offset=".516" stop-color="#d8a956"/><stop offset="1" stop-color="#ab750f"/></linearGradient><linearGradient id="M" x1="10.476" y1="9.884" x2="10.476" y2="105" href="#V"><stop stop-color="#ab750f"/><stop offset=".516" stop-color="#d8a956"/><stop offset="1" stop-color="#ab750f"/></linearGradient><linearGradient id="N" x1="4.5" y1="4" x2="4.5" y2="22" href="#V"><stop stop-color="#ab750f"/><stop offset=".516" stop-color="#d8a956"/><stop offset="1" stop-color="#ab750f"/></linearGradient><linearGradient id="O" x1="43.439" y1="114.5" x2="56.219" y2="114.5" href="#V"><stop stop-color="#ab750f"/><stop offset=".516" stop-color="#d8a956"/><stop offset="1" stop-color="#ab750f"/></linearGradient><linearGradient id="P" x1="45.075" y1="105.6" x2="54.013" y2="105.6" href="#V"><stop stop-color="#ab750f"/><stop offset=".516" stop-color="#d8a956"/><stop offset="1" stop-color="#ab750f"/></linearGradient><linearGradient id="Q" x1="69.564" y1="81.219" x2="35.491" y2="81.566" href="#V"><stop stop-color="#ab750f"/><stop offset=".238" stop-color="#d8a956"/><stop offset="1" stop-color="#ab750f"/></linearGradient><linearGradient id="R" x1="49.926" y1="74.422" x2="49.926" y2="40.341" href="#V"><stop stop-color="#ab750f"/><stop offset=".516" stop-color="#d8a956"/><stop offset="1" stop-color="#ab750f"/></linearGradient><clipPath id="S"><path fill="#fff" transform="translate(42 100)" d="M0 0h16v16H0z"/></clipPath><clipPath id="T"><path fill="#fff" transform="translate(44 100)" d="M0 0h11.2v11.2H0z"/></clipPath><clipPath id="U"><path fill="#fff" transform="translate(34 41)" d="M0 0h32v32H0z"/></clipPath><linearGradient id="V" gradientUnits="userSpaceOnUse"/></defs></svg>
